X: 22
T: The Waterman's Hornpipe
%R: hornpipe, reel
B: "Twenty Four Country Dances with Figures for the Year 1809", Button & Whitaker, p.11 #2
F: http://www.vwml.org/browse/browse-collections-dance-tune-books/browse-button1809
Z: 2014 John Chambers <jc:trillian.mit.edu>
M: C
L: 1/8
K: G
% - - - - - - - - - - - - - - - - - - - - - - - - - - - - -
[|\
(Bc)(dB) G2(gf) | e2(ag) (fd)(ef) | (gf)(gd) (cA)(BG) | F2A2 A2z2 |
(Bc)(dB) G2(gf) | e2(ag) f2(ba) | (gf)(ge) (fd)(e^c) | d2d2 d2z2 |]
[|\
(fg)(af) d2(ef) | (ga)(bg) d2(Bd) | (dc)(Ac) (cB)(GB) | ({B}A^G)(AB) | (AD)(EF) |
(GA)(BG) (EFG^G) | (AB)(cA) (FGA^A) |  (Bc)(dB) ({d}cB)(cA) | G2G2 G2z2 |]
% - - - - - - - - - - Dance description - - - - - - - - - -
%%begintext align
%% Change sides, back again, cross over 1 Cu: Gent:
%% right hands across at bottom, Lady at Top.
%%endtext

%%sep 1 1 500
%%sep 1 1 500
